src/assets/images/service2.svg

<svg width="100" height="100" viewBox="0 0 100 100" fill="none" xmlns="http://www.w3.org/2000/svg">
<path d="M6.06055 34.5466C5.66029 34.5466 5.27642 34.7056 4.9934 34.9887C4.71037 35.2717 4.55137 35.6556 4.55137 36.0558V65.1515C4.55137 65.5518 4.71037 65.9357 4.9934 66.2187C5.27642 66.5017 5.66029 66.6607 6.06055 66.6607C6.46081 66.6607 6.84467 66.5017 7.1277 66.2187C7.41073 65.9357 7.56973 65.5518 7.56973 65.1515V36.0558C7.56975 35.8576 7.53074 35.6614 7.4549 35.4782C7.37907 35.2951 7.2679 35.1287 7.12776 34.9886C6.98761 34.8485 6.82123 34.7373 6.63812 34.6615C6.455 34.5856 6.25874 34.5466 6.06055 34.5466Z" fill="#DEDDE0"/>
<path d="M12.1213 83.3334H15.1516V59.0911H12.1213C5.42676 59.0911 0 64.5178 0 71.2122C0 77.8879 5.4084 83.3334 12.1213 83.3334Z" fill="#3B5A9B"/>
<path d="M81.8184 83.3334H78.7881V59.0911H81.8184C88.5127 59.0911 93.9397 64.5178 93.9397 71.2124C93.9395 77.8879 88.5311 83.3334 81.8184 83.3334Z" fill="#5972A5"/>
<path d="M84.8492 71.2117C84.8492 87.0668 72.0028 99.9998 56.0611 99.9998H37.8779C21.9807 100 9.09179 87.1111 9.09179 71.2117C9.09179 50.35 25.9932 33.334 46.9695 33.334C55.3147 33.334 63.0459 36.0385 69.3162 40.6266C78.7238 47.5088 84.8492 58.6268 84.8492 71.2117Z" fill="#7888AF"/>
<path d="M69.3162 40.6266H66.4024C65.6017 40.6264 64.8337 40.9442 64.2672 41.51L56.6688 49.1104C54.767 51.0119 51.5153 49.6637 51.5153 46.9752V43.6447C51.5153 41.9766 50.1629 40.6262 48.4967 40.6262H45.4078C42.8904 40.6294 40.4354 39.8425 38.3889 38.3764C36.7709 37.2152 34.491 37.982 33.825 39.8594C28.8586 53.8496 26.0918 78.0879 50.3442 100H37.8779C21.9807 100 9.09179 87.1111 9.09179 71.2117C9.09179 50.35 25.9932 33.334 46.9696 33.334C55.3147 33.334 63.0459 36.0385 69.3162 40.6266Z" fill="#5972A5"/>
<path d="M75.7575 71.2117C75.7575 81.225 67.6458 89.393 57.5763 89.393H36.3646C26.3213 89.393 18.1814 81.2531 18.1814 71.2117C18.1814 63.1664 23.4176 56.3146 30.7 53.9301C32.4808 53.3465 34.3845 53.0306 36.3646 53.0306H57.5763C67.6179 53.0304 75.7575 61.1703 75.7575 71.2117Z" fill="#F4F4F5"/>
<path d="M40.7053 89.3929H36.3647C26.3213 89.3929 18.1814 81.2531 18.1814 71.2117C18.1814 63.1664 23.4176 56.3146 30.7 53.9301C29.734 64.398 31.6377 76.9449 40.7053 89.3929Z" fill="#DEDDE0"/>
<path d="M100 10.4922V25.8723C100 31.6656 95.3033 36.3644 89.5078 36.3644H66.4023C65.6017 36.3643 64.8337 36.682 64.2672 37.2478L57.1215 44.3916C56.1717 45.3433 54.5457 44.6693 54.5457 43.325V39.3828C54.5457 37.7146 53.1933 36.3642 51.5271 36.3642H48.3617C41.7351 36.3642 36.3642 30.9914 36.3642 24.3648V10.4922C36.3642 4.69668 41.0609 0 46.8545 0H89.5078C95.3033 0 100 4.69687 100 10.4922Z" fill="#B4E9F1"/>
<path d="M69.1131 36.3646H66.4023C65.6017 36.3645 64.8337 36.6822 64.2672 37.248L57.1215 44.3918C56.1717 45.3435 54.5457 44.6695 54.5457 43.3252V39.383C54.5457 37.7148 53.1933 36.3644 51.5271 36.3644H48.3617C41.7351 36.3644 36.3642 30.9916 36.3642 24.365V10.4922C36.3642 4.69668 41.0609 0 46.8545 0H61.1277C58.2848 5.33086 55.1336 24.5807 69.1131 36.3646Z" fill="#81D8E7"/>
<path d="M6.06054 42.4243C8.57096 42.4243 10.606 40.3892 10.606 37.8788C10.606 35.3683 8.57096 33.3333 6.06054 33.3333C3.55013 33.3333 1.51504 35.3683 1.51504 37.8788C1.51504 40.3892 3.55013 42.4243 6.06054 42.4243Z" fill="#5972A5"/>
<path d="M68.1819 22.7274C70.6923 22.7274 72.7274 20.6923 72.7274 18.1819C72.7274 15.6714 70.6923 13.6364 68.1819 13.6364C65.6715 13.6364 63.6364 15.6714 63.6364 18.1819C63.6364 20.6923 65.6715 22.7274 68.1819 22.7274Z" fill="#7888AF"/>
<path d="M86.3637 22.7274C88.8741 22.7274 90.9092 20.6923 90.9092 18.1819C90.9092 15.6714 88.8741 13.6364 86.3637 13.6364C83.8533 13.6364 81.8182 15.6714 81.8182 18.1819C81.8182 20.6923 83.8533 22.7274 86.3637 22.7274Z" fill="#7888AF"/>
<path d="M50 22.7274C52.5104 22.7274 54.5455 20.6923 54.5455 18.1819C54.5455 15.6714 52.5104 13.6364 50 13.6364C47.4896 13.6364 45.4545 15.6714 45.4545 18.1819C45.4545 20.6923 47.4896 22.7274 50 22.7274Z" fill="#5972A5"/>
<path d="M36.4553 73.2166C36.4566 75.9207 33.7051 78.1141 30.3094 78.1158C26.9139 78.1176 24.16 75.927 24.1586 73.2229C24.1572 70.5187 26.9088 68.3252 30.3045 68.3234C33.7 68.3217 36.4539 70.5125 36.4553 73.2166ZM57.4844 73.2061C57.4858 75.9102 60.2395 78.1008 63.6352 78.099C67.0307 78.0973 69.7822 75.9039 69.7811 73.1998C69.7797 70.4957 67.026 68.3049 63.6303 68.3066C60.2346 68.3084 57.483 70.5018 57.4844 73.2061Z" fill="#FFA1AC"/>
<path d="M52.9953 70.9948C52.9933 67.2701 50.2951 66.9215 46.9666 66.9233C43.6381 66.925 40.94 67.2762 40.9418 71.0008C40.9437 74.7254 43.6435 77.7434 46.9719 77.7416C50.3006 77.7401 52.9972 74.7194 52.9953 70.9948ZM30.9609 69.4006C30.5608 69.4007 30.177 69.2418 29.8939 68.9588C29.6109 68.6759 29.4519 68.2922 29.4518 67.892C29.4506 65.4408 31.4332 63.4555 33.8852 63.4541C36.3289 63.453 38.3217 65.4397 38.323 67.8875C38.3232 68.0857 38.2842 68.282 38.2085 68.4652C38.1328 68.6483 38.0217 68.8147 37.8816 68.955C37.7415 69.0952 37.5752 69.2064 37.3921 69.2824C37.2091 69.3583 37.0128 69.3974 36.8146 69.3975C36.6164 69.3976 36.4202 69.3587 36.237 69.283C36.0539 69.2072 35.8874 69.0961 35.7472 68.9561C35.607 68.816 35.4957 68.6497 35.4198 68.4666C35.3439 68.2835 35.3048 68.0873 35.3047 67.8891C35.3041 66.6227 33.7691 66.0028 32.8848 66.8881C32.7529 67.0195 32.6483 67.1757 32.5772 67.3478C32.506 67.5198 32.4697 67.7043 32.4703 67.8905C32.4704 68.0887 32.4314 68.2851 32.3556 68.4683C32.2798 68.6515 32.1687 68.818 32.0285 68.9583C31.8883 69.0985 31.7219 69.2097 31.5387 69.2856C31.3555 69.3615 31.1592 69.4006 30.9609 69.4006ZM57.1201 69.3875C56.7199 69.3875 56.3362 69.2286 56.0532 68.9457C55.7701 68.6628 55.6111 68.2791 55.6109 67.8789C55.6097 65.4332 57.5986 63.4424 60.0445 63.441C62.4957 63.4397 64.4812 65.4227 64.4824 67.8746C64.4826 68.2749 64.3237 68.6588 64.0408 68.942C63.758 69.2251 63.3742 69.3843 62.9739 69.3845C62.5736 69.3847 62.1897 69.2259 61.9065 68.943C61.6234 68.6601 61.4642 68.2763 61.464 67.876C61.464 67.6899 61.4274 67.5057 61.3561 67.3338C61.2849 67.1619 61.1805 67.0057 61.0489 66.8742C60.9173 66.7426 60.7611 66.6383 60.5891 66.5672C60.4172 66.4961 60.2329 66.4595 60.0469 66.4596C59.2676 66.4596 58.6293 67.0936 58.6297 67.8776C58.6299 68.7073 57.958 69.3875 57.1201 69.3875Z" fill="#495560"/>
</svg>

<svg width="100" height="100" fill="none" xmlns="http://www.w3.org/2000/svg"><path d="M6.06 34.547a1.509 1.509 0 0 0-1.509 1.509v29.096a1.51 1.51 0 1 0 3.019 0V36.055a1.51 1.51 0 0 0-1.51-1.51z" fill="#DEDDE0"/><path d="M12.121 83.333h3.03V59.091h-3.03C5.427 59.091 0 64.518 0 71.212c0 6.676 5.408 12.121 12.121 12.121z" fill="#3B5A9B"/><path d="M81.818 83.333h-3.03V59.091h3.03c6.695 0 12.122 5.427 12.122 12.121 0 6.676-5.409 12.121-12.122 12.121z" fill="#5972A5"/><path d="M84.85 71.212C84.85 87.067 72.002 100 56.06 100H37.878C21.98 100 9.092 87.11 9.092 71.212c0-20.862 16.901-37.878 37.877-37.878a37.725 37.725 0 0 1 22.347 7.293c9.408 6.882 15.533 18 15.533 30.585z" fill="#7888AF"/><path d="M69.316 40.627h-2.914c-.8 0-1.568.317-2.135.883l-7.598 7.6c-1.902 1.902-5.154.554-5.154-2.135v-3.33a3.018 3.018 0 0 0-3.018-3.019h-3.09a12.026 12.026 0 0 1-7.018-2.25c-1.618-1.16-3.898-.394-4.564 1.483-4.966 13.99-7.733 38.229 16.52 60.141H37.877C21.98 100 9.092 87.111 9.092 71.212c0-20.862 16.901-37.878 37.878-37.878a37.725 37.725 0 0 1 22.346 7.293z" fill="#5972A5"/><path d="M75.757 71.212c0 10.013-8.111 18.181-18.18 18.181H36.364c-10.044 0-18.184-8.14-18.184-18.181 0-8.046 5.237-14.897 12.519-17.282 1.78-.584 3.685-.9 5.665-.9h21.211c10.042 0 18.181 8.14 18.181 18.182z" fill="#F4F4F5"/><path d="M40.705 89.393h-4.34c-10.044 0-18.184-8.14-18.184-18.181 0-8.046 5.237-14.897 12.519-17.282-.966 10.468.938 23.015 10.005 35.463z" fill="#DEDDE0"/><path d="M100 10.492v15.38c0 5.794-4.697 10.492-10.492 10.492H66.402c-.8 0-1.568.318-2.135.884l-7.145 7.144c-.95.951-2.576.277-2.576-1.067v-3.942a3.019 3.019 0 0 0-3.019-3.019h-3.165c-6.627 0-11.998-5.373-11.998-12V10.493C36.364 4.697 41.061 0 46.854 0h42.654C95.303 0 100 4.697 100 10.492z" fill="#B4E9F1"/><path d="M69.113 36.365h-2.71c-.801 0-1.57.317-2.136.883l-7.145 7.144c-.95.951-2.576.277-2.576-1.067v-3.942a3.019 3.019 0 0 0-3.019-3.019h-3.165c-6.627 0-11.998-5.372-11.998-11.999V10.492C36.364 4.697 41.061 0 46.854 0h14.274c-2.843 5.33-5.994 24.58 7.985 36.365z" fill="#81D8E7"/><path d="M6.06 42.424a4.545 4.545 0 1 0 0-9.09 4.545 4.545 0 0 0 0 9.09z" fill="#5972A5"/><path d="M68.182 22.727a4.546 4.546 0 1 0 0-9.09 4.546 4.546 0 0 0 0 9.09zM86.364 22.727a4.546 4.546 0 1 0 0-9.09 4.546 4.546 0 0 0 0 9.09z" fill="#7888AF"/><path d="M50 22.727a4.546 4.546 0 1 0 0-9.09 4.546 4.546 0 0 0 0 9.09z" fill="#5972A5"/><path d="M36.455 73.217c.002 2.704-2.75 4.897-6.146 4.899-3.395.002-6.149-2.189-6.15-4.893-.002-2.704 2.75-4.898 6.146-4.9 3.395-.001 6.149 2.19 6.15 4.894zm21.03-.01c0 2.703 2.755 4.894 6.15 4.892 3.396-.002 6.147-2.195 6.146-4.9-.001-2.703-2.755-4.894-6.15-4.892-3.396.001-6.148 2.195-6.147 4.9z" fill="#FFA1AC"/><path d="M52.995 70.995c-.002-3.725-2.7-4.074-6.028-4.072-3.329.002-6.027.353-6.025 4.078.002 3.724 2.702 6.742 6.03 6.74 3.329 0 6.025-3.022 6.023-6.746zM30.961 69.4a1.509 1.509 0 0 1-1.51-1.509 4.433 4.433 0 0 1 4.434-4.438 4.44 4.44 0 0 1 4.438 4.434 1.509 1.509 0 1 1-3.018.001c0-1.266-1.536-1.886-2.42-1a1.408 1.408 0 0 0-.415 1.002 1.51 1.51 0 0 1-1.51 1.51zm26.16-.013a1.509 1.509 0 0 1-1.51-1.51 4.441 4.441 0 0 1 4.434-4.437 4.433 4.433 0 0 1 4.437 4.434 1.51 1.51 0 0 1-3.018.001 1.415 1.415 0 0 0-1.417-1.416c-.78 0-1.418.634-1.417 1.418 0 .83-.672 1.51-1.51 1.51z" fill="#495560"/></svg>
